img/carbon_link-white.svg

<svg width="64" height="64" viewBox="0 0 64 64" fill="none" xmlns="http://www.w3.org/2000/svg">
<path d="M58.5002 13.5199C57.3853 12.4012 56.0606 11.5136 54.602 10.9079C53.1434 10.3022 51.5795 9.99048 50.0002 9.99048C48.4208 9.99048 46.857 10.3022 45.3983 10.9079C43.9397 11.5136 42.615 12.4012 41.5002 13.5199L44.3402 16.3599C45.0848 15.6153 45.9687 15.0247 46.9416 14.6217C47.9144 14.2188 48.9571 14.0113 50.0102 14.0113C51.0632 14.0113 52.1059 14.2188 53.0787 14.6217C54.0516 15.0247 54.9356 15.6153 55.6802 16.3599C56.4248 17.1045 57.0154 17.9885 57.4184 18.9614C57.8214 19.9342 58.0288 20.9769 58.0288 22.0299C58.0288 23.083 57.8214 24.1257 57.4184 25.0985C57.0154 26.0714 56.4248 26.9553 55.6802 27.6999L39.6802 43.6999C38.179 45.2037 36.142 46.0496 34.0172 46.0515C31.8924 46.0533 29.8539 45.2111 28.3502 43.7099C26.8464 42.2088 26.0005 40.1718 25.9986 38.047C25.9968 35.9222 26.839 33.8837 28.3402 32.3799L31.1602 29.5399L28.3402 26.6999L25.5002 29.5399C24.3814 30.6548 23.4938 31.9795 22.8881 33.4381C22.2825 34.8967 21.9707 36.4606 21.9707 38.0399C21.9707 39.6193 22.2825 41.1831 22.8881 42.6418C23.4938 44.1004 24.3814 45.4251 25.5002 46.5399C27.7631 48.7739 30.8203 50.0184 34.0002 49.9999C35.5856 50.0065 37.1566 49.6987 38.6224 49.0946C40.0882 48.4904 41.4198 47.6017 42.5402 46.4799L58.5402 30.4799C60.7821 28.2246 62.0371 25.1717 62.0296 21.9917C62.0221 18.8116 60.7527 15.7646 58.5002 13.5199Z" fill="#FAD9C4"/>
<path d="M8.37994 49.6399C7.63312 48.8965 7.04052 48.013 6.63615 47.04C6.23178 46.0669 6.02362 45.0236 6.02362 43.9699C6.02362 42.9162 6.23178 41.8729 6.63615 40.8998C7.04052 39.9268 7.63312 39.0432 8.37994 38.2999L24.3799 22.2999C25.1233 21.5531 26.0068 20.9605 26.9799 20.5561C27.9529 20.1517 28.9962 19.9436 30.0499 19.9436C31.1036 19.9436 32.147 20.1517 33.12 20.5561C34.093 20.9605 34.9766 21.5531 35.7199 22.2999C36.462 23.0491 37.0462 23.9396 37.4379 24.9187C37.8295 25.8978 38.0206 26.9456 37.9999 27.9999C38.006 29.0575 37.8024 30.1058 37.4007 31.0842C36.9991 32.0626 36.4074 32.9516 35.6599 33.6999L31.4199 37.9999L34.2599 40.8399L38.4999 36.5999C40.7569 34.3429 42.0249 31.2818 42.0249 28.0899C42.0249 24.898 40.7569 21.8369 38.4999 19.5799C36.2429 17.3229 33.1818 16.0549 29.9899 16.0549C26.7981 16.0549 23.7369 17.3229 21.4799 19.5799L5.47994 35.5799C4.35821 36.6951 3.46803 38.0211 2.86059 39.4815C2.25314 40.942 1.94043 42.5081 1.94043 44.0899C1.94043 45.6716 2.25314 47.2378 2.86059 48.6983C3.46803 50.1587 4.35821 51.4847 5.47994 52.5999C7.75758 54.8168 10.8217 56.0396 13.9999 55.9999C17.2061 56.0029 20.2834 54.7375 22.5599 52.4799L19.7199 49.6399C18.9766 50.3867 18.093 50.9793 17.12 51.3837C16.147 51.7881 15.1036 51.9962 14.0499 51.9962C12.9962 51.9962 11.9529 51.7881 10.9799 51.3837C10.0068 50.9793 9.12329 50.3867 8.37994 49.6399Z" fill="#FCEFE7"/>
</svg>

<svg xmlns="http://www.w3.org/2000/svg" width="64" height="64" fill="none"><path fill="#FAD9C4" d="M58.5 13.52a12 12 0 0 0-17 0l2.84 2.84A8.018 8.018 0 1 1 55.68 27.7l-16 16a8.012 8.012 0 0 1-11.34-11.32l2.82-2.84-2.82-2.84-2.84 2.84a12 12 0 0 0 0 17A12 12 0 0 0 34 50a12 12 0 0 0 8.54-3.52l16-16a12 12 0 0 0-.04-16.96"/><path fill="#FCEFE7" d="M8.38 49.64a8 8 0 0 1 0-11.34l16-16a8 8 0 0 1 11.34 0A7.88 7.88 0 0 1 38 28a8 8 0 0 1-2.34 5.7L31.42 38l2.84 2.84 4.24-4.24a12.035 12.035 0 1 0-17.02-17.02l-16 16a12 12 0 0 0 0 17.02A12 12 0 0 0 14 56a12.14 12.14 0 0 0 8.56-3.52l-2.84-2.84a8 8 0 0 1-11.34 0"/></svg>
